X:17502
T:Tipsy Sailor, The
R:Reel
R:Hornpipe
O:Ireland
M:4/4
L:1/16
K:GDor
D2 |\
DGFD GABc dcBA BDAG | F2FE FGAB cAFA dcBA |\
GFDB, G,ABc dcBA BFGA |
Fefe dcAc B2G2 G2 |:\
ABGA Bcde fdBd cBAG |1 F2cF dFcF F2cF dFcF \
:|2 G2gf dcAc B2G2 G2 ||
|:g2(3gab g2gb f2fa f2fa| g2gb g2gb fedc dcBA |\
BGGB AFFA GABG c4 |
(3def(3efg fdcd B2G2 G2 ::\
DGBd DGBd DFAd DFAd | DGBd DGBc d2d_e dcBA |
GBdB GBdB c2AF CFAc | (3def(3efg fdcd B2G2 G2:|
